public/assets/icons/css.svg

<svg width="48" height="48" viewBox="0 0 256 256" fill="none"
        xmlns="http://www.w3.org/2000/svg"
        xmlns:xlink="http://www.w3.org/1999/xlink" version="1.1">

        <g transform="translate(0, 0)">
                <svg width="256" height="256" viewBox="0 0 256 256" fill="none"
                        xmlns="http://www.w3.org/2000/svg">
                        <rect width="256" height="256" rx="60" fill="#0277BD"/>
                        <path d="M53.7527 102.651L56.6155 134.593H128.096V102.651H53.7527Z" fill="#EBEBEB"/>
                        <path d="M128.095 38H127.985H48L50.9036 69.9423H128.095V38Z" fill="#EBEBEB"/>
                        <path d="M128.095 218.841V185.608L127.955 185.645L92.3813 176.04L90.1072 150.564H72.821H58.0425L62.5175 200.718L127.948 218.882L128.095 218.841Z" fill="#EBEBEB"/>
                        <path d="M167.318 134.593L163.61 176.019L127.985 185.635V218.866L193.468 200.718L193.948 195.321L201.454 111.229L202.233 102.651L208 38H127.985V69.9423H172.994L170.088 102.651H127.985V134.593H167.318Z" fill="white"/>
                </svg>

        </g>

</svg>

<svg xmlns="http://www.w3.org/2000/svg" width="48" height="48" fill="none" viewBox="0 0 256 256"><svg xmlns="http://www.w3.org/2000/svg" width="256" height="256" viewBox="0 0 256 256"><rect width="256" height="256" fill="#0277BD" rx="60"/><path fill="#EBEBEB" d="m53.753 102.651 2.862 31.942h71.481v-31.942zM128.095 38H48l2.904 31.942h77.191zM128.095 218.841v-33.233l-.14.037-35.574-9.605-2.274-25.476H58.042l4.475 50.154 65.431 18.164z"/><path fill="#fff" d="m167.318 134.593-3.708 41.426-35.625 9.616v33.231l65.483-18.148.48-5.397 7.506-84.092.779-8.578L208 38h-80.015v31.942h45.009l-2.906 32.709h-42.103v31.942z"/></svg></svg>
